task1.1/build/res/icons/about-icon.svg

<svg width="32" height="32" viewBox="0 0 32 32" fill="none" xmlns="http://www.w3.org/2000/svg">
<path d="M19.0255 13.068C18.8494 12.6606 18.4488 12.3973 18.0048 12.3973C18.0032 12.3973 13.8996 12.4043 13.8773 12.4043C13.4837 12.4043 13.1346 12.6971 12.9742 13.068L10.8318 18.0223C10.714 18.2947 10.7093 18.5968 10.8187 18.8728C10.928 19.1488 11.1383 19.3657 11.4108 19.4836C11.5513 19.5443 11.6995 19.5751 11.8515 19.5751C12.2954 19.5751 12.696 19.3119 12.8721 18.9046L13.2621 18.0026V27.4557C13.2621 28.1306 13.8112 28.6796 14.4861 28.6796C15.1611 28.6796 15.7103 28.1305 15.7103 27.4557V21.1531H16.2293V27.4557C16.2293 28.1306 16.7784 28.6796 17.4535 28.6796C18.1284 28.6796 18.6775 28.1305 18.6775 27.4557V17.8634L19.1277 18.9045C19.3039 19.3118 19.7045 19.575 20.1482 19.575C20.3002 19.575 20.4484 19.5442 20.5889 19.4835C20.8614 19.3657 21.0717 19.1488 21.1811 18.8727C21.2904 18.5968 21.2857 18.2947 21.1679 18.0222L19.0255 13.068Z" fill="black"/>
<path d="M15.8606 11.9899C17.405 11.9899 18.6614 10.7333 18.6614 9.18864C18.6614 7.64387 17.4049 6.38721 15.8606 6.38721C14.3159 6.38721 13.0592 7.64395 13.0592 9.18864C13.0591 10.7333 14.3159 11.9899 15.8606 11.9899Z" fill="black"/>
<path d="M27.4831 6.31594L22.4475 1.31622C21.6791 0.553538 20.3357 0 19.2532 0H5.83281C4.37382 0 3.18674 1.18708 3.18674 2.64608V29.3538C3.18674 30.8129 4.37382 32 5.83281 32H26.1669C27.626 32 28.8132 30.8129 28.8132 29.3538V9.51026C28.8132 8.42411 28.2536 7.08055 27.4831 6.31594ZM5.83217 29.3538L5.83281 2.64544H19.2532C19.2978 2.64544 19.3468 2.64969 19.3987 2.65706V7.44706C19.3987 8.90614 20.5858 10.0932 22.0448 10.0932H26.1677L26.1672 29.3546L5.83217 29.3538Z" fill="black"/>
</svg>

<svg width="32" height="32" fill="none" xmlns="http://www.w3.org/2000/svg"><path d="M19.026 13.068a1.111 1.111 0 00-1.021-.67l-4.128.006c-.393 0-.742.293-.903.664l-2.142 4.954a1.104 1.104 0 00-.013.85 1.104 1.104 0 001.032.703c.444 0 .845-.263 1.021-.67l.39-.902v9.453a1.225 1.225 0 002.448 0v-6.303h.52v6.303a1.224 1.224 0 002.447 0v-9.593l.45 1.041a1.111 1.111 0 102.04-.882l-2.142-4.954zM15.86 11.99a2.804 2.804 0 002.801-2.801 2.804 2.804 0 00-2.8-2.802 2.805 2.805 0 00-2.802 2.802 2.804 2.804 0 002.802 2.8z" fill="#000"/><path d="M27.483 6.316l-5.035-5C21.679.554 20.336 0 19.253 0H5.833a2.65 2.65 0 00-2.646 2.646v26.708A2.65 2.65 0 005.833 32h20.334a2.65 2.65 0 002.646-2.646V9.51c0-1.086-.56-2.43-1.33-3.194zM5.833 29.354V2.645h13.42c.045 0 .094.005.146.012v4.79a2.65 2.65 0 002.646 2.646h4.123v19.262l-20.336-.001z" fill="#000"/></svg>
